svg/fluentui-system-icons/ic_fluent_text_column_two_24_filled.svg

<svg width="24" height="24" viewBox="0 0 24 24" fill="none" xmlns="http://www.w3.org/2000/svg">
<path d="M3 6C3 5.44772 3.44772 5 4 5H10C10.5523 5 11 5.44772 11 6C11 6.55228 10.5523 7 10 7H4C3.44772 7 3 6.55228 3 6ZM3 10C3 9.44772 3.44772 9 4 9H10C10.5523 9 11 9.44772 11 10C11 10.5523 10.5523 11 10 11H4C3.44772 11 3 10.5523 3 10ZM3 14C3 13.4477 3.44772 13 4 13H10C10.5523 13 11 13.4477 11 14C11 14.5523 10.5523 15 10 15H4C3.44772 15 3 14.5523 3 14ZM3 18C3 17.4477 3.44772 17 4 17H10C10.5523 17 11 17.4477 11 18C11 18.5523 10.5523 19 10 19H4C3.44772 19 3 18.5523 3 18ZM13 6C13 5.44772 13.4477 5 14 5H20C20.5523 5 21 5.44772 21 6C21 6.55228 20.5523 7 20 7H14C13.4477 7 13 6.55228 13 6ZM13 10C13 9.44772 13.4477 9 14 9H20C20.5523 9 21 9.44772 21 10C21 10.5523 20.5523 11 20 11H14C13.4477 11 13 10.5523 13 10ZM13 14C13 13.4477 13.4477 13 14 13H20C20.5523 13 21 13.4477 21 14C21 14.5523 20.5523 15 20 15H14C13.4477 15 13 14.5523 13 14ZM13 18C13 17.4477 13.4477 17 14 17H20C20.5523 17 21 17.4477 21 18C21 18.5523 20.5523 19 20 19H14C13.4477 19 13 18.5523 13 18Z" fill="#212121"/>
</svg>

<svg xmlns="http://www.w3.org/2000/svg" width="24" height="24"><path d="M3 6a1 1 0 0 1 1-1h6a1 1 0 1 1 0 2H4a1 1 0 0 1-1-1Zm0 4a1 1 0 0 1 1-1h6a1 1 0 1 1 0 2H4a1 1 0 0 1-1-1Zm0 4a1 1 0 0 1 1-1h6a1 1 0 1 1 0 2H4a1 1 0 0 1-1-1Zm0 4a1 1 0 0 1 1-1h6a1 1 0 1 1 0 2H4a1 1 0 0 1-1-1ZM13 6a1 1 0 0 1 1-1h6a1 1 0 1 1 0 2h-6a1 1 0 0 1-1-1Zm0 4a1 1 0 0 1 1-1h6a1 1 0 1 1 0 2h-6a1 1 0 0 1-1-1Zm0 4a1 1 0 0 1 1-1h6a1 1 0 1 1 0 2h-6a1 1 0 0 1-1-1Zm0 4a1 1 0 0 1 1-1h6a1 1 0 1 1 0 2h-6a1 1 0 0 1-1-1Z"/></svg>
